X: 3252
T: Behind The Ditch In Pairc Anna
R: hornpipe
M: 4/4
K: Adorian
G/|E>AA>^G A>Bc>d|e>=fe>d B>dg>f|e>AA>c B>A (3GAB|A>GE>F G>E D2|
E>AA>^G A2 (3Bcd|e2 (3=fed B2 g>d|e2 A2 B>A^G>B|A2 A>^G A2- A3/2||
g/|e>aa>g (3ege d>g|e>aa>g (3ege d2|e>A (3AAA B>A G2|A>G (3DEF G>E D2|
e>a (3aag e>g d2|e>aa>g e>gd>g|e>A (3ABc B2 (3GAB|A2 A>^G A2- A3/2||

